kora/actions/scalable/flag-black.svg

<svg xmlns="http://www.w3.org/2000/svg" style="fill-rule:evenodd;clip-rule:evenodd;stroke-linejoin:round;stroke-miterlimit:2" width="100%" height="100%" version="1.1" viewBox="0 0 16 16" xml:space="preserve">
 <defs>
  <style id="current-color-scheme" type="text/css">
   .ColorScheme-Text { color:#dfdfdf; } .ColorScheme-Highlight { color:#4285f4; } .ColorScheme-NeutralText { color:#ff9800; } .ColorScheme-PositiveText { color:#4caf50; } .ColorScheme-NegativeText { color:#f44336; }
  </style>
 </defs>
 <path style="fill-rule:nonzero" d="M4,0l0,7l3,0l1,2l6,0l0,-7l-4,0l-1,-2l-5,0Z"/>
 <rect style="fill:currentColor;" class="ColorScheme-Text" width=".953" height="16" x="3.06" y="0"/>
</svg>

<svg xmlns="http://www.w3.org/2000/svg" width="16" height="16" viewBox="0 0 16 16">
 <defs>
  <style id="current-color-scheme" type="text/css">
   .ColorScheme-Text { color:#dfdfdf; } .ColorScheme-Highlight { color:#4285f4; }
  </style>
 </defs>
 <path style="fill:currentColor" class="ColorScheme-Text" d="M 2,0 2,16 4,16 4,7 7,7 8,9 14,9 14,2 10,2 9,0 4,0 2,0 Z"/>
 <path style="fill:#3f3f3f" d="M 4,0 4,7 7,7 8,9 14,9 14,2 10,2 9,0 4,0 Z"/>
</svg>
